storage/app/icons/phosphoricons/light/medal-military-light.svg

<svg xmlns="http://www.w3.org/2000/svg" fill="currentColor" viewBox="0 0 256 256"><path d="M207 42H49a15 15 0 0 0-15 15v49.21a15 15 0 0 0 8.79 13.65l66.4 30.14a46 46 0 1 0 37.62 0l66.4-30.18a15 15 0 0 0 8.79-13.61V57a15 15 0 0 0-15-15m-45 12v76l-34 15.45L94 130V54ZM46 106.21V57a3 3 0 0 1 3-3h33v70.5l-34.24-15.56a3 3 0 0 1-1.76-2.73M162 192a34 34 0 1 1-34-34 34 34 0 0 1 34 34m48-85.79a3 3 0 0 1-1.76 2.73L174 124.5V54h33a3 3 0 0 1 3 3Z"/></svg>

<svg xmlns="http://www.w3.org/2000/svg" viewBox="0 0 256 256" fill="currentColor"><path d="M207,42H49A15,15,0,0,0,34,57v49.21a15,15,0,0,0,8.79,13.65L109.19,150a46,46,0,1,0,37.62,0l66.4-30.18A15,15,0,0,0,222,106.21V57A15,15,0,0,0,207,42ZM162,54v76l-34,15.45L94,130V54ZM46,106.21V57a3,3,0,0,1,3-3H82v70.5L47.76,108.94A3,3,0,0,1,46,106.21ZM162,192a34,34,0,1,1-34-34A34,34,0,0,1,162,192Zm48-85.79a3,3,0,0,1-1.76,2.73L174,124.5V54h33a3,3,0,0,1,3,3Z"/></svg>
